; generated by PrusaSlicer 2.8.0+win64 on 2024-08-17 at 16:10:29 UTC


;
;
; TODO: check the size of the extruder and the y-bar clearance. Optimize & test supports.

; external perimeters extrusion width = 0.45mm
; perimeters extrusion width = 0.45mm
; infill extrusion width = 0.45mm
; solid infill extrusion width = 0.45mm
; top infill extrusion width = 0.40mm
; first layer extrusion width = 0.55mm

M73 P0 R16

EXCLUDE_OBJECT_DEFINE NAME='Shape_Box' CENTER=175.000,175.000 POLYGON=[[192.500,192.500],[157.500,192.500],[157.500,157.500],[192.500,157.500]]

;TYPE:Custom
START_PRINT EXTRUDER_TEMP=270 BED_TEMP=100 CHAMBER_TEMP=40

G1 E10 F100
G1 Z5 E-1 F1200
G1 Z5 F600

G1 X149.965 Y144.965 F6000
G1 Z0.2 F600
G1 X179.965 E5 F600

M400
G21 ; set units to millimeters
G90 ; use absolute coordinates
M83 ; use relative distances for extrusion
SET_PRESSURE_ADVANCE ADVANCE=0.02
M107
;LAYER_CHANGE
;Z:0.2
;HEIGHT:0.2
G1 E-.5 F1800
M73 P1 R16
G1 Z.6 F600
G1 X151.764 Y153.014 F30000
G1 Z.2 F600
G1 E.5 F1800
M204 S5000
;TYPE:Skirt/Brim
;WIDTH:0.55
G1 F4800
G1 X153.538 Y151.39 E.0938
G1 X155.745 Y150.433 E.09382
G1 X157.5 Y150.218 E.06896
G1 X192.5 Y150.218 E1.36505
G1 X194.872 Y150.615 E.0938
G1 X196.986 Y151.764 E.09384
G1 X198.61 Y153.538 E.0938
G1 X199.567 Y155.745 E.09382
G1 X199.782 Y157.5 E.06896
G1 X199.782 Y192.5 E1.36505
G1 X199.385 Y194.872 E.0938
G1 X198.236 Y196.986 E.09384
G1 X196.462 Y198.61 E.0938
G1 X194.255 Y199.567 E.09382
G1 X192.5 Y199.782 E.06896
G1 X157.5 Y199.782 E1.36505
G1 X155.128 Y199.385 E.0938
G1 X153.014 Y198.236 E.09384
G1 X151.39 Y196.462 E.0938
G1 X150.433 Y194.255 E.09382
G1 X150.218 Y192.5 E.06896
G1 X150.218 Y157.5 E1.36505
G1 X150.615 Y155.128 E.0938
G1 X151.735 Y153.067 E.09148
M204 S12000
M204 S20000
G1 X151.735 Y153.067 F30000
G1 X152.193 Y153.327
M204 S5000
G1 F4800
G1 X152.267 Y153.197 E.00583
G1 X154.025 Y151.684 E.09046
G1 X156.19 Y150.853 E.09044
G1 X157.5 Y150.725 E.05134
G1 X192.5 Y150.725 E1.36505
G1 X194.785 Y151.122 E.09045
G1 X196.803 Y152.267 E.09049
G1 X198.316 Y154.025 E.09046
G1 X199.147 Y156.19 E.09044
G1 X199.275 Y157.5 E.05134
G1 X199.275 Y192.5 E1.36505
G1 X198.878 Y194.785 E.09045
G1 X197.733 Y196.803 E.09049
G1 X195.975 Y198.316 E.09046
G1 X193.81 Y199.147 E.09044
G1 X192.5 Y199.275 E.05134
G1 X157.5 Y199.275 E1.36505
G1 X155.215 Y198.878 E.09045
G1 X153.197 Y197.733 E.09049
G1 X151.684 Y195.975 E.09046
G1 X150.853 Y193.81 E.09044
G1 X150.725 Y192.5 E.05134
G1 X150.725 Y157.5 E1.36505
G1 X151.122 Y155.215 E.09045
G1 X152.164 Y153.379 E.08234
M204 S12000
M204 S20000
G1 X152.164 Y153.379 F30000
G1 X152.615 Y153.648
M204 S5000
G1 F4800
G1 X152.769 Y153.388 E.01179
G1 X154.508 Y151.992 E.08697
G1 X157.5 Y151.232 E.1204
G1 X192.5 Y151.232 E1.36505
G1 X194.695 Y151.629 E.087
G1 X196.612 Y152.769 E.08699
G1 X198.008 Y154.508 E.08697
G1 X198.768 Y157.5 E.1204
G1 X198.768 Y192.5 E1.36505
G1 X198.371 Y194.695 E.087
G1 X197.231 Y196.612 E.08699
G1 X195.492 Y198.008 E.08697
G1 X192.5 Y198.768 E.1204
G1 X157.5 Y198.768 E1.36505
G1 X155.305 Y198.371 E.087
G1 X153.388 Y197.231 E.08699
G1 X151.992 Y195.492 E.08697
G1 X151.232 Y192.5 E.1204
G1 X151.232 Y157.5 E1.36505
G1 X151.629 Y155.305 E.087
G1 X152.584 Y153.699 E.07287
M204 S12000
M204 S20000
G1 X152.584 Y153.699 F30000
G1 X153.028 Y153.977
M204 S5000
G1 F4800
G1 X153.271 Y153.589 E.01786
G1 X154.988 Y152.316 E.08336
G1 X157.5 Y151.739 E.10052
G1 X192.5 Y151.739 E1.36505
G1 X194.6 Y152.136 E.08335
M73 P2 R16
G1 X196.411 Y153.271 E.08336
G1 X197.684 Y154.988 E.08336
G1 X198.261 Y157.5 E.10052
G1 X198.261 Y192.5 E1.36505
G1 X197.864 Y194.6 E.08335
G1 X196.729 Y196.411 E.08336
G1 X195.012 Y197.684 E.08336
G1 X192.5 Y198.261 E.10052
G1 X157.5 Y198.261 E1.36505
G1 X155.4 Y197.864 E.08335
G1 X153.589 Y196.729 E.08336
G1 X152.316 Y195.012 E.08336
G1 X151.739 Y192.5 E.10052
G1 X151.739 Y157.5 E1.36505
G1 X152.136 Y155.4 E.08335
G1 X152.996 Y154.028 E.06315
M204 S12000
M204 S20000
G1 X152.996 Y154.028 F30000
G1 X153.429 Y154.315
M204 S5000
G1 F4800
G1 X153.771 Y153.799 E.02414
G1 X155.463 Y152.658 E.07959
G1 X157.5 Y152.246 E.08105
G1 X192.5 Y152.246 E1.36505
G1 X194.501 Y152.643 E.07956
G1 X196.201 Y153.771 E.07957
G1 X197.342 Y155.463 E.07959
G1 X197.754 Y157.5 E.08105
G1 X197.754 Y192.5 E1.36505
G1 X197.357 Y194.501 E.07956
G1 X196.229 Y196.201 E.07957
G1 X194.537 Y197.342 E.07959
G1 X192.5 Y197.754 E.08105
G1 X157.5 Y197.754 E1.36505
G1 X155.499 Y197.357 E.07956
G1 X153.799 Y196.229 E.07957
G1 X152.658 Y194.537 E.07959
G1 X152.246 Y192.5 E.08105
G1 X152.246 Y157.5 E1.36505
G1 X152.643 Y155.499 E.07956
G1 X153.395 Y154.365 E.05307
M204 S12000
G1 E-.35 F1800
;WIPE_START
G1 F24000
G1 X153.429 Y154.315 E-.00431
G1 X153.771 Y153.799 E-.04411
G1 X154.953 Y153.002 E-.10158
;WIPE_END
M204 S20000
G1 Z.6 F600
EXCLUDE_OBJECT_START NAME='Shape_Box'
G1 X157.875 Y157.875 F30000
G1 Z.2 F600
G1 E.5 F1800
M204 S5000
;TYPE:External perimeter
G1 F4800
G1 X192.125 Y157.875 E1.3358
G1 X192.125 Y192.125 E1.3358
G1 X157.875 Y192.125 E1.3358
G1 X157.875 Y157.935 E1.33346
M204 S12000
M204 S20000
G1 X159.07 Y158.382 F30000
M204 S5000
;TYPE:Perimeter
G1 F4800
G1 X191.618 Y158.382 E1.26942
G1 X191.618 Y191.618 E1.29626
G1 X158.382 Y191.618 E1.29626
G1 X158.382 Y158.382 E1.29626
G1 X159.01 Y158.382 E.02449
M73 P2 R15
M204 S12000
M204 S20000
G1 X159.01 Y158.382 F30000
G1 X160.084 Y158.889
M204 S5000
G1 F4800
G1 X191.111 Y158.889 E1.2101
G1 X191.111 Y191.111 E1.25671
G1 X158.889 Y191.111 E1.25671
G1 X158.889 Y158.889 E1.25671
G1 X160.024 Y158.889 E.04427
M204 S12000
G1 E-.35 F1800
;WIPE_START
G1 F24000
G1 X160.084 Y158.889 E-.00428
G1 X162.129 Y158.889 E-.14572
;WIPE_END
M204 S20000
G1 Z.6 F600
G1 X190.984 Y160.045 F30000
G1 Z.2 F600
G1 E.5 F1800
M204 S5000
;TYPE:Solid infill
;WIDTH:0.5517
G1 F4800
G1 X190.184 Y159.244 E.0443
G1 X189.464 Y159.244 E.02818
G1 X190.756 Y160.536 E.0715
G1 X190.756 Y161.255 E.02814
G1 X188.745 Y159.244 E.11129
G1 X188.025 Y159.244 E.02818
G1 X190.756 Y161.975 E.15114
G1 X190.756 Y162.694 E.02814
G1 X187.306 Y159.244 E.19093
G1 X186.586 Y159.244 E.02818
G1 X190.756 Y163.414 E.23077
G1 X190.756 Y164.134 E.02818
M73 P3 R15
G1 X185.866 Y159.244 E.27062
G1 X185.147 Y159.244 E.02814
G1 X190.756 Y164.853 E.31041
G1 X190.756 Y165.573 E.02818
G1 X184.427 Y159.244 E.35026
G1 X183.708 Y159.244 E.02814
G1 X190.756 Y166.292 E.39005
G1 X190.756 Y167.012 E.02818
G1 X182.988 Y159.244 E.42989
G1 X182.269 Y159.244 E.02814
G1 X190.756 Y167.731 E.46968
G1 X190.756 Y168.451 E.02818
G1 X181.549 Y159.244 E.50953
G1 X180.83 Y159.244 E.02814
G1 X190.756 Y169.17 E.54932
G1 X190.756 Y169.89 E.02818
G1 X180.11 Y159.244 E.58917
G1 X179.391 Y159.244 E.02814
G1 X190.756 Y170.609 E.62896
G1 X190.756 Y171.329 E.02818
G1 X178.671 Y159.244 E.6688
G1 X177.952 Y159.244 E.02814
G1 X190.756 Y172.048 E.70859
G1 X190.756 Y172.768 E.02818
G1 X177.232 Y159.244 E.74844
G1 X176.513 Y159.244 E.02814
G1 X190.756 Y173.487 E.78823
G1 X190.756 Y174.207 E.02818
G1 X175.793 Y159.244 E.82807
G1 X175.074 Y159.244 E.02814
G1 X190.756 Y174.926 E.86787
G1 X190.756 Y175.646 E.02818
G1 X174.354 Y159.244 E.90771
G1 X173.635 Y159.244 E.02814
G1 X190.756 Y176.365 E.9475
G1 X190.756 Y177.085 E.02818
G1 X172.915 Y159.244 E.98735
G1 X172.196 Y159.244 E.02814
G1 X190.756 Y177.804 E1.02714
G1 X190.756 Y178.524 E.02818
G1 X171.476 Y159.244 E1.06698
G1 X170.756 Y159.244 E.02818
G1 X190.756 Y179.244 E1.10683
G1 X190.756 Y179.963 E.02814
G1 X170.037 Y159.244 E1.14662
G1 X169.317 Y159.244 E.02818
G1 X190.756 Y180.683 E1.18647
G1 X190.756 Y181.402 E.02814
G1 X168.598 Y159.244 E1.22626
G1 X167.878 Y159.244 E.02818
G1 X190.756 Y182.122 E1.2661
G1 X190.756 Y182.841 E.02814
G1 X167.159 Y159.244 E1.30589
G1 X166.439 Y159.244 E.02818
G1 X190.756 Y183.561 E1.34574
G1 X190.756 Y184.28 E.02814
G1 X165.72 Y159.244 E1.38553
G1 X165 Y159.244 E.02818
G1 X190.756 Y185 E1.42538
G1 X190.756 Y185.719 E.02814
G1 X164.281 Y159.244 E1.46517
G1 X163.561 Y159.244 E.02818
G1 X190.756 Y186.439 E1.50501
G1 X190.756 Y187.158 E.02814
M73 P4 R15
G1 X162.842 Y159.244 E1.5448
G1 X162.122 Y159.244 E.02818
G1 X190.756 Y187.878 E1.58465
G1 X190.756 Y188.597 E.02814
G1 X161.403 Y159.244 E1.62444
G1 X160.683 Y159.244 E.02818
G1 X190.756 Y189.317 E1.66428
G1 X190.756 Y190.036 E.02814
G1 X159.964 Y159.244 E1.70407
G1 X159.244 Y159.244 E.02818
G1 X190.756 Y190.756 E1.74392
G1 X190.036 Y190.756 E.02818
G1 X159.244 Y159.964 E1.70407
G1 X159.244 Y160.683 E.02814
G1 X189.317 Y190.756 E1.66428
G1 X188.597 Y190.756 E.02818
G1 X159.244 Y161.403 E1.62444
G1 X159.244 Y162.122 E.02814
G1 X187.878 Y190.756 E1.58465
G1 X187.158 Y190.756 E.02818
G1 X159.244 Y162.842 E1.5448
G1 X159.244 Y163.561 E.02814
G1 X186.439 Y190.756 E1.50501
G1 X185.719 Y190.756 E.02818
G1 X159.244 Y164.281 E1.46517
G1 X159.244 Y165 E.02814
G1 X185 Y190.756 E1.42538
G1 X184.28 Y190.756 E.02818
G1 X159.244 Y165.72 E1.38553
G1 X159.244 Y166.439 E.02814
G1 X183.561 Y190.756 E1.34574
G1 X182.841 Y190.756 E.02818
G1 X159.244 Y167.159 E1.30589
G1 X159.244 Y167.878 E.02814
G1 X182.122 Y190.756 E1.2661
G1 X181.402 Y190.756 E.02818
G1 X159.244 Y168.598 E1.22626
G1 X159.244 Y169.317 E.02814
G1 X180.683 Y190.756 E1.18647
G1 X179.963 Y190.756 E.02818
M73 P5 R15
G1 X159.244 Y170.037 E1.14662
G1 X159.244 Y170.757 E.02818
G1 X179.243 Y190.756 E1.10677
G1 X178.524 Y190.756 E.02814
G1 X159.244 Y171.476 E1.06698
G1 X159.244 Y172.196 E.02818
G1 X177.804 Y190.756 E1.02714
G1 X177.085 Y190.756 E.02814
G1 X159.244 Y172.915 E.98735
G1 X159.244 Y173.635 E.02818
G1 X176.365 Y190.756 E.9475
G1 X175.646 Y190.756 E.02814
G1 X159.244 Y174.354 E.90771
G1 X159.244 Y175.074 E.02818
G1 X174.926 Y190.756 E.86787
G1 X174.207 Y190.756 E.02814
G1 X159.244 Y175.793 E.82807
G1 X159.244 Y176.513 E.02818
G1 X173.487 Y190.756 E.78823
G1 X172.768 Y190.756 E.02814
G1 X159.244 Y177.232 E.74844
G1 X159.244 Y177.952 E.02818
G1 X172.048 Y190.756 E.70859
G1 X171.329 Y190.756 E.02814
G1 X159.244 Y178.671 E.6688
G1 X159.244 Y179.391 E.02818
G1 X170.609 Y190.756 E.62896
G1 X169.89 Y190.756 E.02814
G1 X159.244 Y180.11 E.58917
G1 X159.244 Y180.83 E.02818
G1 X169.17 Y190.756 E.54932
G1 X168.451 Y190.756 E.02814
G1 X159.244 Y181.549 E.50953
G1 X159.244 Y182.269 E.02818
G1 X167.731 Y190.756 E.46968
G1 X167.012 Y190.756 E.02814
G1 X159.244 Y182.988 E.42989
G1 X159.244 Y183.708 E.02818
G1 X166.292 Y190.756 E.39005
G1 X165.573 Y190.756 E.02814
G1 X159.244 Y184.427 E.35026
G1 X159.244 Y185.147 E.02818
G1 X164.853 Y190.756 E.31041
G1 X164.134 Y190.756 E.02814
G1 X159.244 Y185.867 E.27059
G1 X159.244 Y186.586 E.02814
G1 X163.414 Y190.756 E.23077
G1 X162.694 Y190.756 E.02818
G1 X159.244 Y187.306 E.19093
G1 X159.244 Y188.025 E.02814
G1 X161.975 Y190.756 E.15114
G1 X161.255 Y190.756 E.02818
G1 X159.244 Y188.745 E.11129
G1 X159.244 Y189.464 E.02814
G1 X160.536 Y190.756 E.0715
G1 X159.816 Y190.756 E.02818
G1 X159.016 Y189.955 E.0443
M204 S12000
;LAYER_CHANGE
;Z:0.4
;HEIGHT:0.2
;BEFORE_LAYER_CHANGE
;0.4
G92 E0

G1 E-.35 F1800
;WIPE_START
G1 F24000
G1 X159.816 Y190.756 E-.08066
G1 X160.536 Y190.756 E-.0513
G1 X160.357 Y190.577 E-.01804
;WIPE_END
G1 Z.4 F600
;AFTER_LAYER_CHANGE
;0.4
TIMELAPSE_TAKE_FRAME

G1 X157.725 Y192.275 F30000
G1 Z.4 F600
G1 E.5 F1800
M204 S7500
;TYPE:External perimeter
;WIDTH:0.45
G1 F12000
G1 X157.725 Y191.6 E.02113
G1 X157.725 Y157.725 E1.06063
G1 X191.6 Y157.725 E1.06063
G1 X192.275 Y157.725 E.02113
G1 X192.275 Y158.4 E.02113
G1 X192.275 Y191.6 E1.0395
G1 X192.275 Y192.275 E.02113
G1 X191.6 Y192.275 E.02113
G1 X158.4 Y192.275 E1.0395
G1 X157.785 Y192.275 E.01926
M204 S12000
M204 S20000
G1 X158.132 Y191.395 F30000
M204 S10000
;TYPE:Perimeter
G1 F14739.13
G1 X158.132 Y158.132 E1.04147
G1 X191.868 Y158.132 E1.05628
G1 X191.868 Y191.868 E1.05628
G1 X158.132 Y191.868 E1.05628
G1 X158.132 Y191.455 E.01293
M204 S12000
M204 S20000
G1 X158.539 Y190.581 F30000
M204 S10000
G1 F14739.13
G1 X158.539 Y158.539 E1.00324
G1 X191.461 Y158.539 E1.03079
G1 X191.461 Y191.461 E1.03079
G1 X158.539 Y191.461 E1.03079
G1 X158.539 Y190.641 E.02567
M204 S12000
M204 S20000
G1 X158.539 Y190.641 F30000
G1 X158.935 Y158.857
M204 S12000
;TYPE:Solid infill
;WIDTH:0.548766
G1 F11861.317
G1 X158.89 Y158.812 E.00248
G1 X158.829 Y158.829 E.00246
G1 X158.812 Y158.89 E.00246
G1 X158.857 Y158.935 E.00248
G1 X158.918 Y158.918 E.00246
;WIDTH:0.449999
G1 F14739.152
G1 X158.824 Y159.568 E.02056
G1 X159.568 Y158.824 E.03294
G1 X160.144 Y158.824 E.01803
G1 X158.824 Y160.144 E.05845
G1 X158.824 Y160.72 E.01803
G1 X160.72 Y158.824 E.08395
G1 X161.296 Y158.824 E.01803
G1 X158.824 Y161.296 E.10946
G1 X158.824 Y161.871 E.018
G1 X161.871 Y158.824 E.13492
G1 X162.447 Y158.824 E.01803
G1 X158.824 Y162.447 E.16042
G1 X158.824 Y163.023 E.01803
G1 X163.023 Y158.824 E.18593
G1 X163.598 Y158.824 E.018
G1 X158.824 Y163.598 E.21139
G1 X158.824 Y164.174 E.01803
G1 X164.174 Y158.824 E.23689
G1 X164.75 Y158.824 E.01803
G1 X158.824 Y164.75 E.2624
G1 X158.824 Y165.325 E.018
G1 X165.325 Y158.824 E.28786
G1 X165.901 Y158.824 E.01803
G1 X158.824 Y165.901 E.31336
G1 X158.824 Y166.477 E.01803
G1 X166.477 Y158.824 E.33887
G1 X167.052 Y158.824 E.018
G1 X158.824 Y167.052 E.36433
G1 X158.824 Y167.628 E.01803
G1 X167.628 Y158.824 E.38983
G1 X168.204 Y158.824 E.01803
G1 X158.824 Y168.204 E.41534
G1 X158.824 Y168.78 E.01803
G1 X168.78 Y158.824 E.44084
G1 X169.355 Y158.824 E.018
G1 X158.824 Y169.355 E.4663
G1 X158.824 Y169.931 E.01803
G1 X169.931 Y158.824 E.49181
G1 X170.507 Y158.824 E.01803
G1 X158.824 Y170.507 E.51731
G1 X158.824 Y171.082 E.018
M73 P6 R15
G1 X171.082 Y158.824 E.54277
G1 X171.658 Y158.824 E.01803
G1 X158.824 Y171.658 E.56828
G1 X158.824 Y172.234 E.01803
G1 X172.234 Y158.824 E.59378
G1 X172.809 Y158.824 E.018
G1 X158.824 Y172.809 E.61924
G1 X158.824 Y173.385 E.01803
G1 X173.385 Y158.824 E.64475
G1 X173.961 Y158.824 E.01803
G1 X158.824 Y173.961 E.67025
G1 X158.824 Y174.537 E.01803
G1 X174.537 Y158.824 E.69576
G1 X175.112 Y158.824 E.018
G1 X158.824 Y175.112 E.72122
G1 X158.824 Y175.688 E.01803
G1 X175.688 Y158.824 E.74672
G1 X176.264 Y158.824 E.01803
G1 X158.824 Y176.264 E.77223
G1 X158.824 Y176.839 E.018
G1 X176.839 Y158.824 E.79769
G1 X177.415 Y158.824 E.01803
G1 X158.824 Y177.415 E.82319
G1 X158.824 Y177.991 E.01803
G1 X177.991 Y158.824 E.8487
G1 X178.566 Y158.824 E.018
G1 X158.824 Y178.566 E.87416
G1 X158.824 Y179.142 E.01803
G1 X179.142 Y158.824 E.89966
G1 X179.718 Y158.824 E.01803
G1 X158.824 Y179.718 E.92517
G1 X158.824 Y180.294 E.01803
G1 X180.294 Y158.824 E.95067
G1 X180.869 Y158.824 E.018
G1 X158.824 Y180.869 E.97613
G1 X158.824 Y181.445 E.01803
G1 X181.445 Y158.824 E1.00164
G1 X182.021 Y158.824 E.01803
G1 X158.824 Y182.021 E1.02714
G1 X158.824 Y182.596 E.018
G1 X182.596 Y158.824 E1.0526
G1 X183.172 Y158.824 E.01803
G1 X158.824 Y183.172 E1.07811
G1 X158.824 Y183.748 E.01803
G1 X183.748 Y158.824 E1.10361
G1 X184.323 Y158.824 E.018
G1 X158.824 Y184.323 E1.12907
G1 X158.824 Y184.899 E.01803
G1 X184.899 Y158.824 E1.15458
G1 X185.475 Y158.824 E.01803
G1 X158.824 Y185.475 E1.18008
G1 X158.824 Y186.05 E.018
G1 X186.05 Y158.824 E1.20554
G1 X186.626 Y158.824 E.01803
G1 X158.824 Y186.626 E1.23105
G1 X158.824 Y187.202 E.01803
G1 X187.202 Y158.824 E1.25655
G1 X187.778 Y158.824 E.01803
G1 X158.824 Y187.778 E1.28206
G1 X158.824 Y188.353 E.018
G1 X188.353 Y158.824 E1.30752
G1 X188.929 Y158.824 E.01803
G1 X158.824 Y188.929 E1.33302
G1 X158.824 Y189.505 E.01803
G1 X189.505 Y158.824 E1.35853
G1 X190.08 Y158.824 E.018
G1 X158.824 Y190.08 E1.38399
G1 X158.824 Y190.656 E.01803
G1 X190.656 Y158.824 E1.40949
G1 X191.186 Y158.671 E.01727
;WIDTH:0.38292
G1 F17647.058
G1 X191.322 Y158.678 E.00356
;WIDTH:0.41646
G1 F16062.559
G1 X191.249 Y158.779 E.00358
;WIDTH:0.449999
G1 F14739.152
G1 X191.176 Y158.88 E.0039
G1 X158.88 Y191.176 E1.43004
G1 X158.779 Y191.249 E.0039
;WIDTH:0.41646
G1 F16062.559
G1 X158.678 Y191.322 E.00358
;WIDTH:0.38292
G1 F17647.058
G1 X158.671 Y191.186 E.00356
;WIDTH:0.449999
G1 F14739.152
G1 X159.456 Y191.176 E.02458
G1 X191.176 Y159.456 E1.40454
G1 X191.176 Y160.031 E.018
G1 X160.031 Y191.176 E1.37907
G1 X160.607 Y191.176 E.01803
G1 X191.176 Y160.607 E1.35357
